X:149
T:Deryn y Bwn o'r Banna
M:6/8
L:1/8
Q:120
C:Trad. arr. J.T.
R:Processional
N:Aeolian mode arrangement
K:G
EEE B2 B | G3 E3 | F2 F B2 B | G3 E3 |
B2 G ABc | B2 G B3 | G2 E G3 | c3 B3 | A3 G3|
| F2 F B2 B | G3 E3 ||
